X:6
M:C|
L:1/8
K:A
e|c2ec fddf|f>ec>A B=GGB|c2ec fddf|ecBc A/A/A A:|
|:g|a2ec fddf|a2ec B/B/B ~B>f|1 a2 ec fddf|ecBc A/A/A A:|2afec fgaf|ecBc A/A/A

